src/by-the-way.svg

<svg viewBox="0 0 202 40" fill="none" xmlns="http://www.w3.org/2000/svg"><path d="M9.23 24.79H5.45V19.58H9.46C10.35 19.58 11.44 19.58 12.22 19.98C12.6069 20.1821 12.9336 20.4826 13.1671 20.8514C13.4006 21.2201 13.5327 21.6439 13.55 22.08C13.55 22.96 13.11 23.84 12.32 24.32C11.47 24.85 10.22 24.79 9.22 24.79H9.23ZM5.45 10.26H8.75C9.67 10.26 11.1 10.16 11.88 10.57C12.2331 10.7631 12.5274 11.0482 12.7317 11.3951C12.9359 11.7419 13.0424 12.1375 13.04 12.54C13.04 13.27 12.7 14.07 12.05 14.51C11.24 15.08 10.11 15.02 9.15 15.02H5.45V10.26ZM16.45 28.01C18.08 26.82 19.3 25.01 19.3 22.97C19.3295 21.5765 18.8535 20.2195 17.9602 19.1497C17.0668 18.0798 15.8164 17.3695 14.44 17.15V17.08C16.89 16.48 18.66 14.7 18.66 12.05C18.66 9.83001 17.66 8.13001 15.8 6.94001C14.2 5.92001 12.29 5.92001 10.45 5.92001H0V29.27H10.45C12.46 29.27 14.75 29.27 16.45 28.01Z" fill="black"/><path d="M32.01 18.09L26.25 5.90999H20.53L29.11 24.05C29.11 24.05 25.19 34.72 14.12 34.72H0V39.9H13.31C23.08 39.9 29.35 35.36 32.84 28.2L43.72 5.91999H37.96L32 18.09H32.01ZM108.12 22.09H118.08V16.97H108.12V11.09H120.55V5.89999H102.6V33.18H120.55V28H108.12V22.09ZM75.28 32.55C75.2815 32.831 75.2116 33.1077 75.0769 33.3543C74.9423 33.601 74.7472 33.8093 74.51 33.96C74.2295 34.1543 73.8947 34.255 73.5535 34.2479C73.2123 34.2407 72.8821 34.1259 72.61 33.92C72.3928 33.766 72.2159 33.5621 72.094 33.3254C71.9722 33.0887 71.9091 32.8262 71.91 32.56C71.8996 32.2229 71.9941 31.8908 72.1803 31.6096C72.3666 31.3284 72.6355 31.1119 72.95 30.99L73.08 30.93L75.28 29.73V32.55ZM91.64 14.45L80.8 20.4V5.89999H75.28V23.43L70.61 25.99C69.7252 26.3844 68.9296 26.9542 68.2715 27.665C67.6133 28.3757 67.1062 29.2127 66.7809 30.1251C66.4555 31.0375 66.3187 32.0065 66.3787 32.9733C66.4387 33.9402 66.6943 34.8848 67.13 35.75C67.7236 36.9538 68.6424 37.9674 69.7823 38.6761C70.9222 39.3848 72.2378 39.7603 73.58 39.76C74.9784 39.7538 76.3454 39.345 77.5176 38.5825C78.6898 37.8199 79.6176 36.7359 80.19 35.46C80.59 34.58 80.8 33.58 80.8 32.55V26.7L91.64 20.75V33.17H97.16V5.89999H91.64V14.45ZM70.29 5.89999H49.78V11.07H57.28V33.17H62.79V11.07H70.29V5.89999ZM170.17 24.76L172.23 18.16L174.17 24.77H170.17V24.76ZM169.06 12.46L162.23 33.17H167.52L168.72 29.31H175.47L176.59 33.17H182.46L175.86 12.45H169.06V12.46Z" fill="black"/><path d="M180.33 10.33L187.59 22.27V33.17H192.98V22.37L201.91 5.90999H196.25L190.31 16.71L184.67 7.42999C182.59 4.33999 179.87 0.269989 172.28 0.269989C163.95 0.269989 160.37 5.64999 158.6 10.15L153.82 24.68L149.77 5.89999H143.72L143.67 6.07999L138.77 24.68L132.58 5.89999H127.1L136.06 33.18H141.93L146.74 14.84L150.74 33.18H156.62L163.37 12.33C165.53 6.76999 168.98 5.89999 172.2 5.89999C172.2 5.89999 177.6 5.68999 180.33 10.33Z" fill="black"/></svg>

<svg viewBox="0 0 202 40" fill="none" xmlns="http://www.w3.org/2000/svg"><path d="M9.23 24.79H5.45v-5.21h4.01c.89 0 1.98 0 2.76.4a2.48 2.48 0 0 1 1.33 2.1c0 .88-.44 1.76-1.23 2.24-.85.53-2.1.47-3.1.47h.01ZM5.45 10.26h3.3c.92 0 2.35-.1 3.13.31a2.23 2.23 0 0 1 1.16 1.97c0 .73-.34 1.53-.99 1.97-.81.57-1.94.51-2.9.51h-3.7v-4.76Zm11 17.75c1.63-1.19 2.85-3 2.85-5.04a5.77 5.77 0 0 0-4.86-5.82v-.07c2.45-.6 4.22-2.38 4.22-5.03 0-2.22-1-3.92-2.86-5.11-1.6-1.02-3.51-1.02-5.35-1.02H0v23.35h10.45c2.01 0 4.3 0 6-1.26Z" fill="black"/><path d="M32.01 18.09 26.25 5.91h-5.72l8.58 18.14s-3.92 10.67-14.99 10.67H0v5.18h13.31c9.77 0 16.04-4.54 19.53-11.7L43.72 5.92h-5.76L32 18.09h.01Zm76.11 4h9.96v-5.12h-9.96v-5.88h12.43V5.9H102.6v27.28h17.95V28h-12.43v-5.91ZM75.28 32.55a1.66 1.66 0 0 1-.77 1.41 1.62 1.62 0 0 1-1.9-.04 1.661 1.661 0 0 1-.7-1.36 1.63 1.63 0 0 1 1.04-1.57l.13-.06 2.2-1.2v2.82Zm16.36-18.1L80.8 20.4V5.9h-5.52v17.53l-4.67 2.56a7.159 7.159 0 0 0-3.48 9.76 7.19 7.19 0 0 0 6.45 4.01 7.28 7.28 0 0 0 6.61-4.3c.4-.88.61-1.88.61-2.91V26.7l10.84-5.95v12.42h5.52V5.9h-5.52v8.55ZM70.29 5.9H49.78v5.17h7.5v22.1h5.51v-22.1h7.5V5.9Zm99.88 18.86 2.06-6.6 1.94 6.61h-4v-.01Zm-1.11-12.3-6.83 20.71h5.29l1.2-3.86h6.75l1.12 3.86h5.87l-6.6-20.72h-6.8v.01Z" fill="black"/><path d="m180.33 10.33 7.26 11.94v10.9h5.39v-10.8l8.93-16.46h-5.66l-5.94 10.8-5.64-9.28c-2.08-3.09-4.8-7.16-12.39-7.16-8.33 0-11.91 5.38-13.68 9.88l-4.78 14.53-4.05-18.78h-6.05l-.05.18-4.9 18.6-6.19-18.78h-5.48l8.96 27.28h5.87l4.81-18.34 4 18.34h5.88l6.75-20.85c2.16-5.56 5.61-6.43 8.83-6.43 0 0 5.4-.21 8.13 4.43Z" fill="black"/></svg>
